img/pages/gigabit/icon-join.svg

<?xml version="1.0" encoding="UTF-8" standalone="no"?>
<svg width="137px" height="78px" viewBox="0 0 137 78" version="1.1" xmlns="http://www.w3.org/2000/svg" xmlns:xlink="http://www.w3.org/1999/xlink">
    <!-- Generator: Sketch 40 (33762) - http://www.bohemiancoding.com/sketch -->
    <title>icon-clubs-connect</title>
    <desc>Created with Sketch.</desc>
    <defs>
        <polygon id="path-1" points="0 0.0532380952 137 0.0532380952 137 78 0 78"></polygon>
        <polygon id="path-3" points="0 0.0532380952 137 0.0532380952 137 78 0 78"></polygon>
    </defs>
    <g id="Symbols" stroke="none" stroke-width="1" fill="none" fill-rule="evenodd">
        <g id="gigabit-cta-footer" transform="translate(-643.000000, 0.000000)">
            <g id="icon-clubs-connect">
                <g transform="translate(643.000000, 0.000000)">
                    <g id="Page-1">
                        <g>
                            <g id="icon-clubs-connect">
                                <path d="M92.9111784,29.2986571 C94.2750072,29.2986571 95.3796468,30.4067524 95.3796468,31.7748476 C95.3796468,33.1429429 94.2750072,34.2510381 92.9111784,34.2510381 C91.5473495,34.2510381 90.4427099,33.1429429 90.4427099,31.7748476 C90.4427099,30.4067524 91.5473495,29.2986571 92.9111784,29.2986571" id="Fill-1" fill="#E78832"></path>
                                <path d="M46.3763514,41.0440952 C47.7401802,41.0440952 48.8448198,42.1521905 48.8448198,43.5202857 C48.8448198,44.888381 47.7401802,45.9964762 46.3763514,45.9964762 C45.0125225,45.9964762 43.9078829,44.888381 43.9078829,43.5202857 C43.9078829,42.1521905 45.0125225,41.0440952 46.3763514,41.0440952" id="Fill-3" fill="#E78832"></path>
                                <path d="M15.9509964,1.29195238 C20.0066901,1.29195238 23.3070324,4.511 23.3070324,8.46671429 C23.3070324,12.4236667 20.0066901,15.6414762 15.9509964,15.6414762 C11.8928342,15.6414762 8.59125766,12.4236667 8.59125766,8.46671429 C8.59125766,4.511 11.8928342,1.29195238 15.9509964,1.29195238 M15.9509964,16.8795714 C20.6879874,16.8795714 24.5412667,13.1058571 24.5412667,8.46671429 C24.5412667,3.82757143 20.6879874,0.0538571429 15.9509964,0.0538571429 C11.2127712,0.0538571429 7.35702342,3.82757143 7.35702342,8.46671429 C7.35702342,13.1058571 11.2127712,16.8795714 15.9509964,16.8795714" id="Fill-5" fill="#E78832"></path>
                                <g id="Group-9">
                                    <g id="Fill-7-Clipped">
                                        <mask id="mask-2" fill="white">
                                            <use xlink:href="#path-1"></use>
                                        </mask>
                                        <g id="path-1"></g>
                                        <path d="M30.6666477,44.6264 C30.6666477,46.4142095 29.724927,47.682019 28.7918459,48.1450667 C28.3327108,48.3741143 27.6464766,48.5313524 26.8997649,48.0856381 L26.8997649,30.7436381 C26.8997649,30.4006857 26.6245306,30.1245905 26.2826477,30.1245905 C25.9419991,30.1245905 25.6655306,30.4006857 25.6655306,30.7436381 L25.6655306,72.9639238 C25.6655306,75.0575429 23.9141523,76.7624 21.762882,76.7624 C19.6116117,76.7624 17.8602333,75.0575429 17.8602333,72.9639238 L17.8602333,48.4137333 C17.8602333,48.070781 17.5837649,47.7946857 17.2431162,47.7946857 L14.6586297,47.7946857 C14.3179811,47.7946857 14.0415126,48.070781 14.0415126,48.4137333 L14.0415126,72.9639238 C14.0415126,75.0575429 12.2901342,76.7624 10.1363955,76.7624 C7.98635946,76.7624 6.23621532,75.0575429 6.23621532,72.9639238 L6.23621532,30.7436381 C6.23621532,30.4006857 5.95974685,30.1245905 5.6190982,30.1245905 C5.27844955,30.1245905 5.00198108,30.4006857 5.00198108,30.7436381 L5.00198108,48.046019 C4.33549459,48.3431619 3.51102613,48.306019 2.82232342,47.9284 C1.79790901,47.3675429 1.23386396,46.1950667 1.23386396,44.6264 L1.23386396,23.0117333 C1.23386396,20.980019 1.98304414,20.224781 3.99608018,20.224781 L26.710927,20.224781 C29.8545216,20.224781 30.667882,20.798019 30.667882,23.0117333 L30.6666477,44.6264 L30.6666477,44.6264 Z M26.710927,18.9866857 L3.99608018,18.9866857 C1.30668378,18.9866857 -0.000370270271,20.302781 -0.000370270271,23.0117333 L-0.000370270271,44.6264 C-0.000370270271,46.6383048 0.814224324,48.2379238 2.23112523,49.0142095 C3.09138649,49.4859238 4.10222432,49.5973524 5.00198108,49.3534476 L5.00198108,72.9639238 C5.00198108,75.7409714 7.30506216,78.0004952 10.1363955,78.0004952 C12.9701973,78.0004952 15.2757468,75.7409714 15.2757468,72.9639238 L15.2757468,49.032781 L16.6259991,49.032781 L16.6259991,72.9639238 C16.6259991,75.7409714 18.9303144,78.0004952 21.762882,78.0004952 C24.5954495,78.0004952 26.8997649,75.7409714 26.8997649,72.9639238 L26.8997649,49.4413524 C27.6933775,49.708781 28.5412964,49.6518286 29.3410802,49.2544 C30.8715306,48.4942095 31.900882,46.6345905 31.900882,44.6264 L31.9021162,23.0117333 C31.9021162,19.2949714 29.4472243,18.9866857 26.710927,18.9866857 L26.710927,18.9866857 L26.710927,18.9866857 Z" id="Fill-7" fill="#E78832" mask="url(#mask-2)"></path>
                                    </g>
                                </g>
                                <path d="M121.049004,1.29195238 C125.104697,1.29195238 128.40504,4.511 128.40504,8.46671429 C128.403805,12.4236667 125.103463,15.6414762 121.049004,15.6414762 C116.990841,15.6414762 113.689265,12.4236667 113.689265,8.46671429 C113.689265,4.511 116.990841,1.29195238 121.049004,1.29195238 M121.049004,16.8795714 C125.78476,16.8795714 129.63804,13.1058571 129.639274,8.46671429 C129.639274,3.82757143 125.785995,0.0538571429 121.049004,0.0538571429 C116.310778,0.0538571429 112.455031,3.82757143 112.455031,8.46671429 C112.455031,13.1058571 116.310778,16.8795714 121.049004,16.8795714" id="Fill-10" fill="#E78832"></path>
                                <g id="Group-14">
                                    <g id="Fill-12-Clipped">
                                        <mask id="mask-4" fill="white">
                                            <use xlink:href="#path-3"></use>
                                        </mask>
                                        <g id="path-3"></g>
                                        <path d="M135.764532,44.6264 C135.764532,46.4142095 134.822811,47.682019 133.888495,48.1450667 C133.428126,48.3741143 132.74436,48.5313524 131.996414,48.0856381 L131.996414,30.7436381 C131.996414,30.4006857 131.72118,30.1245905 131.379297,30.1245905 C131.038649,30.1245905 130.76218,30.4006857 130.76218,30.7436381 L130.76218,72.9639238 C130.76218,75.0575429 129.012036,76.7624 126.860766,76.7624 C124.708261,76.7624 122.956883,75.0575429 122.956883,72.9639238 L122.956883,48.4137333 C122.956883,48.070781 122.680414,47.7946857 122.339766,47.7946857 L119.755279,47.7946857 C119.414631,47.7946857 119.138162,48.070781 119.138162,48.4137333 L119.138162,72.9639238 C119.138162,75.0575429 117.386784,76.7624 115.234279,76.7624 C113.083009,76.7624 111.332865,75.0575429 111.332865,72.9639238 L111.332865,30.7436381 C111.332865,30.4006857 111.056396,30.1245905 110.715748,30.1245905 C110.375099,30.1245905 110.098631,30.4006857 110.098631,30.7436381 L110.098631,48.046019 C109.43091,48.3431619 108.60891,48.306019 107.920207,47.9284 C106.895793,47.3675429 106.331748,46.1950667 106.331748,44.6264 L106.331748,23.0117333 C106.331748,20.980019 107.079694,20.224781 109.091495,20.224781 L131.808811,20.224781 C134.952405,20.224781 135.765766,20.798019 135.765766,23.0117333 L135.764532,44.6264 L135.764532,44.6264 Z M131.808811,18.9866857 L109.091495,18.9866857 C106.404568,18.9866857 105.097514,20.302781 105.097514,23.0117333 L105.097514,44.6264 C105.097514,46.6383048 105.912108,48.2379238 107.329009,49.0154476 C108.188036,49.4859238 109.19764,49.5985905 110.098631,49.3534476 L110.098631,72.9639238 C110.098631,75.7409714 112.401712,78.0004952 115.234279,78.0004952 C118.068081,78.0004952 120.372396,75.7409714 120.372396,72.9639238 L120.372396,49.032781 L121.722649,49.032781 L121.722649,72.9639238 C121.722649,75.7409714 124.026964,78.0004952 126.860766,78.0004952 C129.693333,78.0004952 131.996414,75.7409714 131.996414,72.9639238 L131.996414,49.4413524 C132.788793,49.708781 133.636712,49.6505905 134.43773,49.2544 C135.969414,48.4942095 136.998766,46.6345905 136.998766,44.6264 L137,23.0117333 C137,19.2949714 134.545108,18.9866857 131.808811,18.9866857 L131.808811,18.9866857 L131.808811,18.9866857 Z" id="Fill-12" fill="#E78832" mask="url(#mask-4)"></path>
                                    </g>
                                </g>
                                <path d="M91.5334027,31.7746 C91.5334027,31.4328857 91.2569342,31.1555524 90.9162856,31.1555524 L43.9080063,31.1555524 C43.5673577,31.1555524 43.2908892,31.4328857 43.2908892,31.7746 C43.2908892,32.1163143 43.5673577,32.3936476 43.9080063,32.3936476 L90.9162856,32.3936476 C91.2569342,32.3936476 91.5334027,32.1163143 91.5334027,31.7746" id="Fill-15" fill="#E78832"></path>
                                <path d="M95.3795234,42.9011143 L47.659091,42.9011143 C47.3184423,42.9011143 47.0419739,43.1784476 47.0419739,43.5201619 C47.0419739,43.8618762 47.3184423,44.1392095 47.659091,44.1392095 L95.3795234,44.1392095 C95.7201721,44.1392095 95.9966405,43.8618762 95.9966405,43.5201619 C95.9966405,43.1784476 95.7201721,42.9011143 95.3795234,42.9011143" id="Fill-17" fill="#E78832"></path>
                            </g>
                        </g>
                    </g>
                </g>
            </g>
        </g>
    </g>
</svg>

<svg width="137" height="78" viewBox="0 0 137 78" xmlns="http://www.w3.org/2000/svg" xmlns:xlink="http://www.w3.org/1999/xlink">
    <title>
        icon-clubs-connect
    </title>
    <defs>
        <path id="a" d="M0 .053h137V78H0z"/>
        <path id="c" d="M0 .053h137V78H0z"/>
    </defs>
    <g fill="none" fill-rule="evenodd">
        <path d="M92.91 29.3c1.365 0 2.47 1.107 2.47 2.475s-1.105 2.476-2.47 2.476c-1.363 0-2.467-1.107-2.467-2.475S91.547 29.3 92.91 29.3M46.376 41.044c1.364 0 2.47 1.108 2.47 2.476 0 1.368-1.106 2.476-2.47 2.476-1.363 0-2.468-1.108-2.468-2.476 0-1.368 1.105-2.476 2.468-2.476M15.95 1.292c4.057 0 7.357 3.22 7.357 7.175 0 3.957-3.3 7.174-7.356 7.174-4.057 0-7.36-3.216-7.36-7.173 0-3.956 3.303-7.175 7.36-7.175m0 15.588c4.738 0 8.59-3.774 8.59-8.413 0-4.64-3.852-8.413-8.59-8.413-4.737 0-8.593 3.774-8.593 8.413 0 4.64 3.856 8.413 8.594 8.413" fill="#E78832"/>
        <g>
            <mask id="b" fill="#fff">
                <use xlink:href="#a"/>
            </mask>
            <path d="M30.667 44.626c0 1.788-.942 3.056-1.875 3.52-.46.228-1.146.385-1.892-.06V30.744c0-.343-.275-.62-.617-.62-.34 0-.617.277-.617.62v42.22c0 2.094-1.752 3.798-3.903 3.798-2.15 0-3.903-1.704-3.903-3.798v-24.55c0-.343-.276-.62-.617-.62H14.66c-.342 0-.618.277-.618.62v24.55c0 2.094-1.752 3.798-3.906 3.798-2.15 0-3.9-1.704-3.9-3.798v-42.22c0-.343-.276-.62-.617-.62-.342 0-.618.277-.618.62v17.302c-.667.297-1.49.26-2.18-.118-1.024-.56-1.588-1.733-1.588-3.302V23.012c0-2.032.75-2.787 2.762-2.787H26.71c3.145 0 3.958.573 3.958 2.787v21.614zm-3.956-25.64H3.997C1.306 18.987 0 20.304 0 23.013v21.614c0 2.012.814 3.612 2.23 4.388.86.472 1.872.583 2.772.34v23.61C5.002 75.74 7.305 78 10.136 78c2.834 0 5.14-2.26 5.14-5.036v-23.93h1.35v23.93c0 2.777 2.304 5.036 5.137 5.036 2.832 0 5.137-2.26 5.137-5.036V49.44c.793.27 1.64.212 2.44-.186 1.532-.76 2.56-2.62 2.56-4.628l.002-21.614c0-3.717-2.455-4.025-5.19-4.025z" fill="#E78832" mask="url(#b)"/>
        </g>
        <path d="M121.05 1.292c4.055 0 7.355 3.22 7.355 7.175 0 3.957-3.302 7.174-7.356 7.174-4.06 0-7.36-3.216-7.36-7.173 0-3.956 3.3-7.175 7.36-7.175m0 15.588c4.735 0 8.588-3.774 8.59-8.413 0-4.64-3.854-8.413-8.59-8.413-4.74 0-8.595 3.774-8.595 8.413 0 4.64 3.856 8.413 8.594 8.413" fill="#E78832"/>
        <g>
            <mask id="d" fill="#fff">
                <use xlink:href="#c"/>
            </mask>
            <path d="M135.765 44.626c0 1.788-.942 3.056-1.877 3.52-.46.228-1.144.385-1.892-.06V30.744c0-.343-.275-.62-.617-.62-.34 0-.618.277-.618.62v42.22c0 2.094-1.75 3.798-3.9 3.798-2.154 0-3.905-1.704-3.905-3.798v-24.55c0-.343-.277-.62-.617-.62h-2.585c-.34 0-.617.277-.617.62v24.55c0 2.094-1.75 3.798-3.904 3.798-2.15 0-3.9-1.704-3.9-3.798v-42.22c0-.343-.278-.62-.618-.62-.34 0-.617.277-.617.62v17.302c-.67.297-1.49.26-2.18-.118-1.024-.56-1.588-1.733-1.588-3.302V23.012c0-2.032.748-2.787 2.76-2.787h22.717c3.142 0 3.956.573 3.956 2.787v21.614zm-3.956-25.64h-22.72c-2.685 0-3.992 1.317-3.992 4.026v21.614c0 2.012.814 3.612 2.23 4.39.86.47 1.87.583 2.77.337v23.61c0 2.778 2.304 5.037 5.136 5.037 2.834 0 5.138-2.26 5.138-5.036v-23.93h1.35v23.93c0 2.777 2.305 5.036 5.14 5.036 2.83 0 5.134-2.26 5.134-5.036V49.44c.793.27 1.64.21 2.442-.186 1.53-.76 2.56-2.62 2.56-4.628L137 23.012c0-3.717-2.455-4.025-5.19-4.025z" fill="#E78832" mask="url(#d)"/>
        </g>
        <path d="M91.533 31.775c0-.342-.276-.62-.617-.62H43.908c-.34 0-.617.278-.617.62 0 .34.277.62.618.62h47.008c.34 0 .617-.28.617-.62M95.38 42.9H47.66c-.342 0-.618.278-.618.62 0 .342.276.62.617.62h47.72c.34 0 .617-.278.617-.62 0-.342-.277-.62-.617-.62" fill="#E78832"/>
    </g>
</svg>
